assets/icons/icon_garden.svg

<svg width="48" height="48" viewBox="0 0 48 48" fill="none" xmlns="http://www.w3.org/2000/svg">
<g clip-path="url(#clip0_2188_3209)">
<path d="M43.4996 18.65C42.0896 14.31 38.0496 11.6 33.7196 11.61C32.3896 7.47998 28.5696 4.47998 23.9996 4.47998C19.4296 4.47998 15.6096 7.48998 14.2796 11.61C9.94964 11.6 5.90964 14.3 4.49964 18.65C3.08964 22.99 4.76964 27.56 8.27964 30.09C6.92964 34.21 8.25964 38.89 11.9496 41.57C13.7496 42.88 15.8396 43.51 17.8996 43.51C19.9596 43.51 22.2096 42.82 23.9996 41.51C25.7896 42.82 27.9396 43.51 30.0996 43.51C32.2596 43.51 34.2496 42.88 36.0496 41.57C39.7396 38.89 41.0696 34.21 39.7196 30.09C43.2296 27.55 44.9096 22.99 43.4996 18.65ZM37.9696 27.66L36.7796 28.52C36.4296 28.77 36.2796 29.23 36.4196 29.64L36.8796 31.03C37.8696 34.04 36.8296 37.31 34.2996 39.15C32.6196 40.37 30.5196 40.81 28.4096 40.32C27.3996 40.09 26.4696 39.6 25.6296 38.99L24.5996 38.24C24.2496 37.98 23.7696 37.98 23.4196 38.24L22.3896 38.99C21.5596 39.6 20.6196 40.08 19.6096 40.32C17.4996 40.81 15.3996 40.38 13.7196 39.15C11.1896 37.31 10.1496 34.05 11.1396 31.03L11.5996 29.64C11.7396 29.23 11.5896 28.77 11.2396 28.52L10.0496 27.66C7.47964 25.8 6.39964 22.55 7.36964 19.58C8.32964 16.61 11.1096 14.62 14.2896 14.62H15.7496C16.1896 14.62 16.5696 14.35 16.7096 13.93L17.1596 12.54C18.1296 9.51998 20.8896 7.48998 24.0196 7.48998C27.1496 7.48998 29.9096 9.51998 30.8796 12.54L31.3496 13.94C31.4896 14.35 31.8696 14.62 32.2996 14.62H33.7696C36.9296 14.62 39.6996 16.61 40.6696 19.58C41.6396 22.56 40.5596 25.81 37.9896 27.66H37.9696Z" fill="black"/>
<path d="M23.9995 17.2202C19.7095 17.2202 16.2295 20.7002 16.2295 24.9902C16.2295 29.2802 19.7095 32.7602 23.9995 32.7602C28.2895 32.7602 31.7695 29.2802 31.7695 24.9902C31.7695 20.7002 28.2895 17.2202 23.9995 17.2202ZM23.9995 29.7602C21.3695 29.7602 19.2295 27.6202 19.2295 24.9902C19.2295 22.3602 21.3695 20.2202 23.9995 20.2202C26.6295 20.2202 28.7695 22.3602 28.7695 24.9902C28.7695 27.6202 26.6295 29.7602 23.9995 29.7602Z" fill="black"/>
</g>
<defs>
<clipPath id="clip0_2188_3209">
<rect width="48" height="48" fill="white"/>
</clipPath>
</defs>
</svg>

<?xml version="1.0" encoding="UTF-8"?>
<svg xmlns="http://www.w3.org/2000/svg" viewBox="0 0 48 48">
  <defs>
    <style>
      .cls-1 {
        fill: none;
        opacity: .2;
      }
    </style>
  </defs>
  <g id="guid">
    <rect class="cls-1" width="48" height="48"/>
    <rect class="cls-1" x="4" y="4" width="40" height="40"/>
  </g>
  <g id="Layer_2" data-name="Layer 2">
    <g>
      <path d="M43.5,18.65c-1.41-4.34-5.45-7.05-9.78-7.04h0c-1.33-4.13-5.15-7.13-9.72-7.13s-8.39,3.01-9.72,7.13h0c-4.33-.01-8.37,2.69-9.78,7.04-1.41,4.34.27,8.91,3.78,11.44-1.35,4.12-.02,8.8,3.67,11.48,1.8,1.31,3.89,1.94,5.95,1.94s4.31-.69,6.1-2c1.79,1.31,3.94,2,6.1,2s4.15-.63,5.95-1.94c3.69-2.68,5.02-7.36,3.67-11.48,3.51-2.54,5.19-7.1,3.78-11.44ZM37.97,27.66l-1.19.86c-.35.25-.5.71-.36,1.12l.46,1.39c.99,3.01-.05,6.28-2.58,8.12-1.68,1.22-3.78,1.66-5.89,1.17-1.01-.23-1.94-.72-2.78-1.33l-1.03-.75c-.35-.26-.83-.26-1.18,0l-1.03.75c-.83.61-1.77,1.09-2.78,1.33-2.11.49-4.21.06-5.89-1.17-2.53-1.84-3.57-5.1-2.58-8.12l.46-1.39c.14-.41-.01-.87-.36-1.12l-1.19-.86c-2.57-1.86-3.65-5.11-2.68-8.08.96-2.97,3.74-4.96,6.92-4.96h1.46c.44,0,.82-.27.96-.69l.45-1.39c.97-3.02,3.73-5.05,6.86-5.05s5.89,2.03,6.86,5.05l.47,1.4c.14.41.52.68.95.68h1.47c3.16,0,5.93,1.99,6.9,4.96.97,2.98-.11,6.23-2.68,8.08Z"/>
      <path d="M24,17.22c-4.29,0-7.77,3.48-7.77,7.77s3.48,7.77,7.77,7.77,7.77-3.48,7.77-7.77-3.48-7.77-7.77-7.77ZM24,29.76c-2.63,0-4.77-2.14-4.77-4.77s2.14-4.77,4.77-4.77,4.77,2.14,4.77,4.77-2.14,4.77-4.77,4.77Z"/>
    </g>
  </g>
</svg>
